X: 18085
T: Humours Of Ballycullen, The
R: polka
M: 2/4
K: Edorian
|:BE EB|FF E2|BB Ec|d2 cA|
BE EG|FG EA|FA DF/A/|1 d2 c2:|2 d2 cd/c/||
Be ed/e/|fe ed|Be ef/e/|d2 BA|
Be ed/e/|fe ed|BA cA|d2 BA|
Be ed/e/|fe ed|Be ef|d2 de|
fg/f/ ef/e/|dc Bd|Ad F2|F>A dc||

